public/images/dev31.svg

<svg width="100" height="100" viewBox="0 0 100 100" fill="none" xmlns="http://www.w3.org/2000/svg">
<path d="M36.08 34.6409L33.84 34.0534V37.558L36.08 38.1252V34.6409Z" fill="#F68D13"/>
<path d="M36.42 34.0331L38.42 33.5267L36.42 33L34.4 33.5267L36.42 34.0331Z" fill="#F68D13"/>
<path d="M36.7401 34.6409V38.1252L38.9801 37.558V34.0534L36.7401 34.6409Z" fill="#F68D13"/>
<path d="M33.18 39.5433L30.94 38.9558V42.4604L33.18 43.0479V39.5433Z" fill="#F68D13"/>
<path d="M33.52 38.9355L35.54 38.4291L33.52 37.9226L31.5 38.4291L33.52 38.9355Z" fill="#F68D13"/>
<path d="M33.84 39.5433V43.0479L36.08 42.4604V38.9558L33.84 39.5433Z" fill="#F68D13"/>
<path d="M27.34 39.5433L25.08 38.9558V42.4604L27.34 43.0479V39.5433Z" fill="#F68D13"/>
<path d="M27.66 38.9355L29.68 38.4291L27.66 37.9226L25.64 38.4291L27.66 38.9355Z" fill="#F68D13"/>
<path d="M27.98 39.5433V43.0479L30.24 42.4604V38.9558L27.98 39.5433Z" fill="#F68D13"/>
<path d="M30.24 44.5065L27.98 43.919V47.4236L30.24 47.9908V44.5065Z" fill="#F68D13"/>
<path d="M30.56 43.8987L32.58 43.3923L30.56 42.8656L28.54 43.3923L30.56 43.8987Z" fill="#F68D13"/>
<path d="M30.8801 44.5065V47.9908L33.1401 47.4236V43.919L30.8801 44.5065Z" fill="#F68D13"/>
<path d="M41.86 34.6409L39.62 34.0534V37.558L41.86 38.1252V34.6409Z" fill="#F68D13"/>
<path d="M42.2 34.0331L44.2 33.5267L42.2 33L40.18 33.5267L42.2 34.0331Z" fill="#F68D13"/>
<path d="M42.52 34.6409V38.1252L44.76 37.558V34.0534L42.52 34.6409Z" fill="#F68D13"/>
<path d="M42.32 50.2192L41.66 48.0313H38.34L37.68 50.2192H35.6L38.82 40.9613H41.18L44.4 50.2192H42.32ZM41.2 46.3904C40.58 44.4052 40.24 43.2707 40.16 43.0074C40.08 42.744 40.02 42.5414 40 42.3794C39.86 42.9263 39.48 44.2431 38.82 46.3702H41.2V46.3904Z" fill="black"/>
<path d="M54.4 50.2191H52.2L50.96 45.3775C50.92 45.1952 50.84 44.8508 50.72 44.3039C50.6 43.7569 50.54 43.3922 50.54 43.2099C50.52 43.4328 50.46 43.7974 50.36 44.3039C50.26 44.8103 50.18 45.1547 50.12 45.3775L48.9 50.2191H46.7L44.4 41.0018H46.3L47.46 46.0258C47.66 46.9576 47.82 47.7679 47.9 48.4364C47.92 48.1934 47.98 47.8287 48.08 47.3223C48.18 46.8158 48.26 46.4309 48.34 46.1473L49.66 40.9816H51.48L52.8 46.1676C52.86 46.3904 52.94 46.755 53.02 47.221C53.1 47.6869 53.18 48.1123 53.22 48.4364C53.26 48.1123 53.32 47.7072 53.42 47.2007C53.52 46.7145 53.6 46.3094 53.66 46.0055L54.82 40.9816H56.72L54.4 50.2191Z" fill="black"/>
<path d="M63.24 47.6464C63.24 48.477 62.94 49.1252 62.36 49.6114C61.76 50.0976 60.94 50.3204 59.9 50.3204C58.92 50.3204 58.06 50.1381 57.32 49.7735V47.9503C57.94 48.2339 58.46 48.4162 58.88 48.5378C59.3 48.6593 59.7 48.6998 60.04 48.6998C60.46 48.6998 60.78 48.6188 61.02 48.4567C61.24 48.2947 61.36 48.0516 61.36 47.7274C61.36 47.5451 61.32 47.3831 61.22 47.2413C61.12 47.0994 60.98 46.9576 60.78 46.8361C60.58 46.7145 60.2 46.4917 59.6 46.2081C59.04 45.9447 58.62 45.6814 58.34 45.4383C58.06 45.1952 57.84 44.9116 57.68 44.5875C57.52 44.2634 57.44 43.8785 57.44 43.453C57.44 42.6427 57.72 41.9945 58.26 41.5285C58.8 41.0626 59.56 40.8195 60.52 40.8195C61 40.8195 61.44 40.8803 61.88 40.9816C62.3 41.1031 62.76 41.2449 63.22 41.4678L62.6 42.9871C62.12 42.7845 61.72 42.6427 61.4 42.5617C61.08 42.4807 60.78 42.4401 60.46 42.4401C60.1 42.4401 59.82 42.5212 59.62 42.7035C59.42 42.8858 59.32 43.1087 59.32 43.372C59.32 43.5543 59.36 43.6961 59.44 43.8177C59.52 43.9392 59.64 44.0608 59.82 44.1823C60 44.3039 60.4 44.5267 61.04 44.8306C61.9 45.2357 62.48 45.6611 62.78 46.0663C63.08 46.5525 63.24 47.0589 63.24 47.6464Z" fill="black"/>
<path d="M7.56 58.2007C7.56 59.7201 7.14 60.8748 6.28 61.6851C5.42 62.4954 4.2 62.9005 2.58 62.9005H0V53.6832H2.86C4.34 53.6832 5.5 54.0884 6.32 54.8784C7.14 55.6685 7.56 56.7827 7.56 58.2007ZM5.54 58.2615C5.54 56.2762 4.68 55.2836 2.96 55.2836H1.92V61.2799H2.74C4.62 61.2799 5.54 60.267 5.54 58.2615Z" fill="black"/>
<path d="M12.44 63.0221C11.32 63.0221 10.44 62.7182 9.82 62.0902C9.18 61.4622 8.88 60.5709 8.88 59.4365C8.88 58.2615 9.18 57.3499 9.76 56.7017C10.34 56.0534 11.14 55.7293 12.18 55.7293C13.16 55.7293 13.92 56.0129 14.48 56.5801C15.02 57.1473 15.3 57.9374 15.3 58.93V59.8619H10.78C10.8 60.4088 10.96 60.8343 11.26 61.1381C11.56 61.442 11.98 61.604 12.52 61.604C12.94 61.604 13.34 61.5635 13.7 61.4622C14.08 61.3812 14.46 61.2394 14.88 61.0368V62.5157C14.54 62.6777 14.2 62.7993 13.82 62.9006C13.44 62.9816 12.98 63.0221 12.44 63.0221ZM12.16 57.0866C11.76 57.0866 11.44 57.2081 11.22 57.4715C11 57.7348 10.86 58.0994 10.82 58.5654H13.48C13.48 58.0994 13.34 57.7145 13.12 57.4715C12.9 57.2081 12.58 57.0866 12.16 57.0866Z" fill="black"/>
<path d="M18.48 62.9006L15.82 55.8508H17.8L19.14 59.8619C19.28 60.3683 19.38 60.8545 19.42 61.3002H19.46C19.48 60.895 19.58 60.4088 19.74 59.8619L21.08 55.8508H23.06L20.4 62.9006H18.48Z" fill="black"/>
<path d="M27.22 63.0221C26.1 63.0221 25.22 62.7182 24.6 62.0902C23.96 61.4622 23.66 60.5709 23.66 59.4365C23.66 58.2615 23.96 57.3499 24.54 56.7017C25.12 56.0534 25.92 55.7293 26.96 55.7293C27.94 55.7293 28.7 56.0129 29.26 56.5801C29.8 57.1473 30.08 57.9374 30.08 58.93V59.8619H25.6C25.62 60.4088 25.78 60.8343 26.08 61.1381C26.38 61.442 26.8 61.604 27.34 61.604C27.76 61.604 28.16 61.5635 28.52 61.4622C28.9 61.3812 29.28 61.2394 29.7 61.0368V62.5157C29.36 62.6777 29.02 62.7993 28.64 62.9006C28.22 62.9816 27.76 63.0221 27.22 63.0221ZM26.96 57.0866C26.56 57.0866 26.24 57.2081 26.02 57.4715C25.8 57.7348 25.66 58.0994 25.62 58.5654H28.28C28.28 58.0994 28.14 57.7145 27.92 57.4715C27.68 57.2081 27.36 57.0866 26.96 57.0866Z" fill="black"/>
<path d="M33.5 62.9006H31.6V53.0958H33.5V62.9006Z" fill="black"/>
<path d="M41.82 59.3554C41.82 60.5101 41.52 61.4015 40.92 62.0497C40.32 62.698 39.5 63.0221 38.42 63.0221C37.76 63.0221 37.16 62.8803 36.66 62.5764C36.14 62.2726 35.76 61.8471 35.48 61.3002C35.2 60.7532 35.06 60.105 35.06 59.3554C35.06 58.2007 35.36 57.3094 35.96 56.6611C36.56 56.0129 37.38 55.709 38.46 55.709C39.12 55.709 39.72 55.8508 40.22 56.1547C40.74 56.4586 41.12 56.8637 41.4 57.4309C41.68 57.9779 41.82 58.6261 41.82 59.3554ZM37 59.3554C37 60.0442 37.12 60.5709 37.34 60.9355C37.56 61.3002 37.94 61.4622 38.44 61.4622C38.94 61.4622 39.32 61.2799 39.54 60.9355C39.76 60.5912 39.88 60.0442 39.88 59.3554C39.88 58.6667 39.76 58.14 39.54 57.7956C39.32 57.4512 38.94 57.2689 38.44 57.2689C37.94 57.2689 37.56 57.4512 37.34 57.7956C37.12 58.14 37 58.6667 37 59.3554Z" fill="black"/>
<path d="M47.2 63.0221C46.38 63.0221 45.74 62.7182 45.28 62.1105H45.18C45.24 62.698 45.28 63.0423 45.28 63.1234V65.9797H43.38V55.8306H44.92L45.18 56.7422H45.26C45.7 56.0534 46.36 55.6888 47.24 55.6888C48.06 55.6888 48.7 56.0129 49.16 56.6611C49.62 57.3094 49.86 58.2007 49.86 59.3352C49.86 60.0847 49.76 60.7329 49.54 61.3002C49.32 61.8674 49.02 62.2725 48.6 62.5764C48.22 62.8803 47.76 63.0221 47.2 63.0221ZM46.64 57.2486C46.18 57.2486 45.82 57.3904 45.62 57.6943C45.4 57.9779 45.3 58.4641 45.28 59.1326V59.3352C45.28 60.0847 45.4 60.6317 45.62 60.9558C45.84 61.2799 46.2 61.442 46.68 61.442C47.54 61.442 47.96 60.7329 47.96 59.3149C47.96 58.6261 47.86 58.0994 47.64 57.755C47.42 57.4309 47.1 57.2486 46.64 57.2486Z" fill="black"/>
<path d="M54.6 63.0221C53.48 63.0221 52.6 62.7182 51.98 62.0902C51.34 61.4622 51.04 60.5709 51.04 59.4365C51.04 58.2615 51.34 57.3499 51.92 56.7017C52.5 56.0534 53.3 55.7293 54.34 55.7293C55.32 55.7293 56.08 56.0129 56.64 56.5801C57.18 57.1473 57.46 57.9374 57.46 58.93V59.8619H52.98C53 60.4088 53.16 60.8343 53.46 61.1381C53.76 61.442 54.18 61.604 54.72 61.604C55.14 61.604 55.54 61.5635 55.9 61.4622C56.28 61.3812 56.66 61.2394 57.08 61.0368V62.5157C56.74 62.6777 56.4 62.7993 56.02 62.9006C55.6 62.9816 55.14 63.0221 54.6 63.0221ZM54.34 57.0866C53.94 57.0866 53.62 57.2081 53.4 57.4715C53.18 57.7348 53.04 58.0994 53 58.5654H55.66C55.66 58.0994 55.52 57.7145 55.3 57.4715C55.06 57.2081 54.74 57.0866 54.34 57.0866Z" fill="black"/>
<path d="M62.86 55.709C63.12 55.709 63.34 55.7293 63.5 55.7698L63.36 57.5727C63.2 57.5322 63.02 57.512 62.8 57.512C62.2 57.512 61.72 57.674 61.38 57.9779C61.04 58.302 60.88 58.7274 60.88 59.2947V62.8803H58.98V55.8306H60.42L60.7 57.0258H60.8C61.02 56.6206 61.3 56.3168 61.68 56.0737C62.04 55.8306 62.44 55.709 62.86 55.709Z" fill="black"/>
<path d="M71.74 62.9005H69.82V55.3039H67.34V53.6832H74.22V55.3039H71.74V62.9005Z" fill="black"/>
<path d="M81.8 59.3554C81.8 60.5101 81.5 61.4015 80.9 62.0497C80.3 62.698 79.48 63.0221 78.4 63.0221C77.74 63.0221 77.14 62.8803 76.64 62.5764C76.12 62.2726 75.74 61.8471 75.46 61.3002C75.18 60.7532 75.04 60.105 75.04 59.3554C75.04 58.2007 75.34 57.3094 75.94 56.6611C76.54 56.0129 77.36 55.709 78.44 55.709C79.1 55.709 79.7 55.8508 80.2 56.1547C80.72 56.4586 81.1 56.8637 81.38 57.4309C81.66 57.9779 81.8 58.6261 81.8 59.3554ZM76.98 59.3554C76.98 60.0442 77.1 60.5709 77.32 60.9355C77.54 61.3002 77.92 61.4622 78.42 61.4622C78.92 61.4622 79.3 61.2799 79.52 60.9355C79.74 60.5912 79.86 60.0442 79.86 59.3554C79.86 58.6667 79.74 58.14 79.52 57.7956C79.3 57.4512 78.92 57.2689 78.42 57.2689C77.92 57.2689 77.54 57.4512 77.32 57.7956C77.1 58.14 76.98 58.6667 76.98 59.3554Z" fill="black"/>
<path d="M89.68 59.3554C89.68 60.5101 89.38 61.4015 88.78 62.0497C88.18 62.698 87.36 63.0221 86.28 63.0221C85.62 63.0221 85.02 62.8803 84.52 62.5764C84 62.2726 83.62 61.8471 83.34 61.3002C83.06 60.7532 82.92 60.105 82.92 59.3554C82.92 58.2007 83.22 57.3094 83.82 56.6611C84.42 56.0129 85.24 55.709 86.32 55.709C86.98 55.709 87.58 55.8508 88.08 56.1547C88.6 56.4586 88.98 56.8637 89.26 57.4309C89.54 57.9779 89.68 58.6261 89.68 59.3554ZM84.88 59.3554C84.88 60.0442 85 60.5709 85.22 60.9355C85.44 61.3002 85.82 61.4622 86.32 61.4622C86.82 61.4622 87.2 61.2799 87.42 60.9355C87.64 60.5709 87.76 60.0442 87.76 59.3554C87.76 58.6667 87.64 58.14 87.42 57.7956C87.2 57.4512 86.82 57.2689 86.32 57.2689C85.82 57.2689 85.44 57.4512 85.22 57.7956C84.98 58.14 84.88 58.6667 84.88 59.3554Z" fill="black"/>
<path d="M93.16 62.9006H91.26V53.0958H93.16V62.9006Z" fill="black"/>
<path d="M100 60.814C100 61.5433 99.76 62.0902 99.26 62.4751C98.76 62.86 98.02 63.0424 97.04 63.0424C96.54 63.0424 96.1 63.0018 95.74 62.9411C95.38 62.8803 95.04 62.779 94.74 62.6372V61.0571C95.1 61.2192 95.5 61.361 95.94 61.4825C96.38 61.6041 96.78 61.6446 97.1 61.6446C97.78 61.6446 98.14 61.442 98.14 61.0368C98.14 60.895 98.1 60.7532 98 60.6722C97.9 60.5709 97.76 60.4696 97.52 60.3481C97.3 60.2265 97 60.0847 96.62 59.9226C96.08 59.6998 95.7 59.477 95.44 59.2947C95.18 59.1123 95 58.8895 94.9 58.6261C94.78 58.3831 94.72 58.0589 94.72 57.6943C94.72 57.0663 94.96 56.5801 95.44 56.2357C95.92 55.8913 96.6 55.7293 97.48 55.7293C98.32 55.7293 99.14 55.9116 99.92 56.2762L99.34 57.6538C99 57.512 98.66 57.3702 98.36 57.2891C98.06 57.2081 97.74 57.1473 97.44 57.1473C96.88 57.1473 96.6 57.3094 96.6 57.6133C96.6 57.7956 96.7 57.9374 96.88 58.0589C97.06 58.1805 97.46 58.3628 98.06 58.6261C98.6 58.849 99 59.0516 99.26 59.2541C99.52 59.4567 99.7 59.6796 99.82 59.9226C99.94 60.1657 100 60.4494 100 60.814Z" fill="black"/>
</svg>

<svg xmlns="http://www.w3.org/2000/svg" width="100" height="100" fill="none"><path fill="#F68D13" d="m36.08 34.64-2.24-.587v3.505l2.24.567zM36.42 34.033l2-.506-2-.527-2.02.527zM36.74 34.64v3.485l2.24-.567v-3.505zM33.18 39.543l-2.24-.587v3.504l2.24.588zM33.52 38.936l2.02-.507-2.02-.506-2.02.506zM33.84 39.543v3.505l2.24-.588v-3.504zM27.34 39.543l-2.26-.587v3.504l2.26.588zM27.66 38.936l2.02-.507-2.02-.506-2.02.506zM27.98 39.543v3.505l2.26-.588v-3.504zM30.24 44.507l-2.26-.588v3.505l2.26.567zM30.56 43.899l2.02-.507-2.02-.526-2.02.526zM30.88 44.507v3.484l2.26-.567v-3.505zM41.86 34.64l-2.24-.587v3.505l2.24.567zM42.2 34.033l2-.506-2-.527-2.02.527zM42.52 34.64v3.485l2.24-.567v-3.505z"/><path fill="#000" d="m42.32 50.22-.66-2.189h-3.32l-.66 2.188H35.6l3.22-9.258h2.36l3.22 9.258zm-1.12-3.83c-.62-1.985-.96-3.12-1.04-3.383a4 4 0 0 1-.16-.628c-.14.547-.52 1.864-1.18 3.991h2.38zM54.4 50.22h-2.2l-1.24-4.843c-.04-.182-.12-.526-.24-1.073q-.18-.82-.18-1.094-.03.334-.18 1.094c-.1.506-.18.85-.24 1.073L48.9 50.22h-2.2l-2.3-9.217h1.9l1.16 5.024c.2.932.36 1.742.44 2.41.02-.243.08-.607.18-1.114.1-.506.18-.891.26-1.175l1.32-5.165h1.82l1.32 5.186c.06.222.14.587.22 1.053s.16.891.2 1.215c.04-.324.1-.729.2-1.235.1-.486.18-.892.24-1.196l1.16-5.023h1.9zM63.24 47.646c0 .831-.3 1.48-.88 1.965-.6.487-1.42.71-2.46.71q-1.47 0-2.58-.547V47.95c.62.284 1.14.466 1.56.588s.82.162 1.16.162c.42 0 .74-.081.98-.243.22-.162.34-.405.34-.73a.8.8 0 0 0-.14-.486c-.1-.142-.24-.283-.44-.405a13 13 0 0 0-1.18-.628c-.56-.263-.98-.527-1.26-.77q-.42-.364-.66-.85a2.55 2.55 0 0 1-.24-1.135c0-.81.28-1.459.82-1.925s1.3-.709 2.26-.709c.48 0 .92.061 1.36.163.42.121.88.263 1.34.486l-.62 1.52a9 9 0 0 0-1.2-.426 3.7 3.7 0 0 0-.94-.122c-.36 0-.64.081-.84.264a.87.87 0 0 0-.3.668c0 .182.04.324.12.446.08.121.2.243.38.364.18.122.58.345 1.22.649.86.405 1.44.83 1.74 1.235.3.486.46.993.46 1.58M7.56 58.2c0 1.52-.42 2.675-1.28 3.485S4.2 62.9 2.58 62.9H0v-9.217h2.86c1.48 0 2.64.405 3.46 1.195s1.24 1.905 1.24 3.323m-2.02.061q0-2.977-2.58-2.977H1.92v5.996h.82c1.88 0 2.8-1.013 2.8-3.019M12.44 63.022c-1.12 0-2-.304-2.62-.932-.64-.628-.94-1.52-.94-2.654 0-1.175.3-2.086.88-2.734s1.38-.973 2.42-.973c.98 0 1.74.284 2.3.851.54.567.82 1.357.82 2.35v.932h-4.52q.03.82.48 1.276c.3.304.72.466 1.26.466.42 0 .82-.04 1.18-.142.38-.08.76-.223 1.18-.425v1.479c-.34.162-.68.283-1.06.385q-.57.12-1.38.121m-.28-5.935c-.4 0-.72.121-.94.384-.22.264-.36.628-.4 1.094h2.66c0-.466-.14-.85-.36-1.093-.22-.264-.54-.385-.96-.385M18.48 62.9l-2.66-7.05h1.98l1.34 4.012c.14.506.24.992.28 1.438h.04c.02-.405.12-.891.28-1.438l1.34-4.011h1.98L20.4 62.9zM27.22 63.022c-1.12 0-2-.304-2.62-.932-.64-.628-.94-1.52-.94-2.654 0-1.175.3-2.086.88-2.734s1.38-.973 2.42-.973c.98 0 1.74.284 2.3.851.54.567.82 1.357.82 2.35v.932H25.6q.03.82.48 1.276c.3.304.72.466 1.26.466.42 0 .82-.04 1.18-.142.38-.08.76-.223 1.18-.425v1.479c-.34.162-.68.283-1.06.385-.42.08-.88.121-1.42.121m-.26-5.935c-.4 0-.72.121-.94.384-.22.264-.36.628-.4 1.094h2.66c0-.466-.14-.85-.36-1.093-.24-.264-.56-.385-.96-.385M33.5 62.9h-1.9v-9.804h1.9zM41.82 59.355c0 1.155-.3 2.047-.9 2.695s-1.42.972-2.5.972c-.66 0-1.26-.142-1.76-.446-.52-.303-.9-.729-1.18-1.276q-.42-.82-.42-1.945c0-1.154.3-2.046.9-2.694s1.42-.952 2.5-.952c.66 0 1.26.142 1.76.446.52.304.9.709 1.18 1.276.28.547.42 1.195.42 1.924m-4.82 0c0 .69.12 1.216.34 1.58s.6.527 1.1.527.88-.182 1.1-.527c.22-.344.34-.89.34-1.58 0-.688-.12-1.215-.34-1.56-.22-.344-.6-.526-1.1-.526s-.88.182-1.1.527c-.22.344-.34.87-.34 1.56M47.2 63.022q-1.23 0-1.92-.911h-.1c.06.587.1.931.1 1.012v2.857h-1.9V55.83h1.54l.26.912h.08c.44-.689 1.1-1.053 1.98-1.053q1.23 0 1.92.972c.46.648.7 1.54.7 2.674 0 .75-.1 1.398-.32 1.965s-.52.973-.94 1.276c-.38.304-.84.446-1.4.446m-.56-5.773c-.46 0-.82.141-1.02.445-.22.284-.32.77-.34 1.439v.202c0 .75.12 1.297.34 1.62.22.325.58.487 1.06.487.86 0 1.28-.71 1.28-2.127 0-.689-.1-1.216-.32-1.56-.22-.324-.54-.506-1-.506M54.6 63.022c-1.12 0-2-.304-2.62-.932-.64-.628-.94-1.52-.94-2.654 0-1.175.3-2.086.88-2.734s1.38-.973 2.42-.973c.98 0 1.74.284 2.3.851.54.567.82 1.357.82 2.35v.932h-4.48q.03.82.48 1.276c.3.304.72.466 1.26.466.42 0 .82-.04 1.18-.142.38-.08.76-.223 1.18-.425v1.479c-.34.162-.68.283-1.06.385-.42.08-.88.121-1.42.121m-.26-5.935c-.4 0-.72.121-.94.384-.22.264-.36.628-.4 1.094h2.66c0-.466-.14-.85-.36-1.093-.24-.264-.56-.385-.96-.385M62.86 55.709c.26 0 .48.02.64.06l-.14 1.804a2.3 2.3 0 0 0-.56-.061c-.6 0-1.08.162-1.42.466-.34.324-.5.75-.5 1.317v3.585h-1.9v-7.05h1.44l.28 1.196h.1c.22-.405.5-.71.88-.952a2.1 2.1 0 0 1 1.18-.365M71.74 62.9h-1.92v-7.596h-2.48v-1.62h6.88v1.62h-2.48zM81.8 59.355c0 1.155-.3 2.047-.9 2.695s-1.42.972-2.5.972c-.66 0-1.26-.142-1.76-.446-.52-.303-.9-.729-1.18-1.276q-.42-.82-.42-1.945c0-1.154.3-2.046.9-2.694s1.42-.952 2.5-.952c.66 0 1.26.142 1.76.446.52.304.9.709 1.18 1.276.28.547.42 1.195.42 1.924m-4.82 0c0 .69.12 1.216.34 1.58s.6.527 1.1.527.88-.182 1.1-.527c.22-.344.34-.89.34-1.58 0-.688-.12-1.215-.34-1.56-.22-.344-.6-.526-1.1-.526s-.88.182-1.1.527c-.22.344-.34.87-.34 1.56M89.68 59.355c0 1.155-.3 2.047-.9 2.695s-1.42.972-2.5.972c-.66 0-1.26-.142-1.76-.446-.52-.303-.9-.729-1.18-1.276q-.42-.82-.42-1.945c0-1.154.3-2.046.9-2.694s1.42-.952 2.5-.952c.66 0 1.26.142 1.76.446.52.304.9.709 1.18 1.276.28.547.42 1.195.42 1.924m-4.8 0c0 .69.12 1.216.34 1.58s.6.527 1.1.527.88-.182 1.1-.527c.22-.364.34-.89.34-1.58 0-.688-.12-1.215-.34-1.56-.22-.344-.6-.526-1.1-.526s-.88.182-1.1.527c-.24.344-.34.87-.34 1.56M93.16 62.9h-1.9v-9.804h1.9zM100 60.814c0 .73-.24 1.276-.74 1.661s-1.24.567-2.22.567c-.5 0-.94-.04-1.3-.1a3.9 3.9 0 0 1-1-.305v-1.58q.54.243 1.2.425c.44.122.84.163 1.16.163.68 0 1.04-.203 1.04-.608 0-.142-.04-.284-.14-.365-.1-.101-.24-.202-.48-.324q-.33-.182-.9-.425a6 6 0 0 1-1.18-.628 1.44 1.44 0 0 1-.54-.669c-.12-.243-.18-.567-.18-.932q0-.942.72-1.458c.48-.345 1.16-.507 2.04-.507.84 0 1.66.183 2.44.547l-.58 1.378c-.34-.142-.68-.284-.98-.365-.3-.08-.62-.142-.92-.142-.56 0-.84.162-.84.466 0 .183.1.324.28.446s.58.304 1.18.567c.54.223.94.426 1.2.628.26.203.44.426.56.669s.18.526.18.891"/></svg>
